// @title W02-01
// @license CC BY-NC-SA 4.0 https://creativecommons.org/licenses/by-nc-sa/4.0/
// @by Terence Tang
// @date Jan 24, 2026


setCps(140/60/4)

$: 
n(irand(10))
  .sub(2)
  .seg(16)
  .lpf(400)
  .lpenv(slider(0.92,0,8))
  .fm(4)
  .fmwave("square")
  .detune(20)
  .s("saw")
._punchcard()

$: 
s("sbd")
  .seg(slider(4.216,0,8))
._scope()
