// @title W02-05
// @license CC BY-NC-SA 4.0 https://creativecommons.org/licenses/by-nc-sa/4.0/
// @by Terence Tang
// @date Jan 24, 2026

setCps(140/60/4)

$: 
n(irand(10))
  .sub(2)
  .seg(16)
   .legato(2)
  .lpf(400)
  .lpenv(slider(5.632,0,8))
  .fm(4)
  .fmwave("saw")
  .detune(20)
  .s("saw")
._punchcard()


