// @title W04-01
// @license CC BY-NC-SA 4.0 https://creativecommons.org/licenses/by-nc-sa/4.0/
// @by Terence Tang
// @date march 07, 2026

osc().modulateKaleid(o0,.3).color(.5,10,.5).out()
osc(15,.5,.8).diff(o3,3).out(o1)
osc(3,.3,33).modulatePixelate(o3,5,10).modulateRotate(o0, 2, .5).out(o2)
src(o0,.5).mult(o1,2).kaleid(10).out(o3)
render(o1)
